X:52
T:Trip to Milan THO4.052, A
M:2/4
L:1/8
Z:vmp. Peter Dunk 2010/11.from a transcription by Fynn Titford-Mock 2007
B:Thompson's Compleat Collection of 200 Favourite Country Dances Volume IV.
Q:1/4=140
K:Bb
B>cd>e|f>ba>g|f>ed>e|ff f2|B>cd>e|f>ba>g|fedc|BB B2:|
|:B>AB>A|d>Bd>B|e>ce>c|f>f f2|B>AB>A|d>Bd>B|eedc|BB B2:|
